src/assets/dark/IconRewards.svg

<svg width="57" height="56" viewBox="0 0 57 56" fill="none" xmlns="http://www.w3.org/2000/svg">
<path d="M20.2876 22.8578C22.3925 23.5754 25.1827 23.9707 28.1443 23.9707C31.106 23.9707 33.8962 23.5754 36.0011 22.8578C38.2446 22.0929 39.4801 21.0196 39.4801 19.8359C39.4801 18.6521 38.2446 17.5789 36.0011 16.814C33.8962 16.0964 31.106 15.7012 28.1443 15.7012C25.1827 15.7012 22.3925 16.0964 20.2876 16.8141C18.0441 17.5789 16.8086 18.6521 16.8086 19.8359C16.8086 21.0197 18.0441 22.0929 20.2876 22.8578Z" fill="#2BC58E"/>
<path fill-rule="evenodd" clip-rule="evenodd" d="M38.7068 24.4355C38.529 24.4355 38.3364 24.4957 38.1178 24.6193C37.7951 24.802 37.3876 24.9422 36.9561 25.0908L36.8311 25.134C34.4756 25.9484 31.3906 26.3969 28.1444 26.3969C24.8982 26.3969 21.8132 25.9484 19.4577 25.134C18.7915 24.9036 18.6064 24.8312 18.3603 24.7047C18.1101 24.5736 17.8772 24.507 17.6679 24.507C17.2145 24.507 16.9361 24.8112 16.8612 25.1127C16.8263 25.2532 16.8086 25.3965 16.8086 25.5388C16.8086 26.7392 18.0441 27.8276 20.2875 28.6032C22.3924 29.3309 25.1827 29.7318 28.1443 29.7318C31.1059 29.7318 33.8962 29.3309 36.0011 28.6032C38.2446 27.8276 39.4801 26.7392 39.4801 25.5388C39.4801 25.3519 39.4497 25.1643 39.3888 24.9785C39.2341 24.5061 38.8952 24.4355 38.7068 24.4355Z" fill="#2BC58E" fill-opacity="0.8"/>
<path fill-rule="evenodd" clip-rule="evenodd" d="M38.7069 30.0117C38.5291 30.0117 38.3366 30.0719 38.118 30.1955C37.7956 30.378 37.3884 30.5181 36.9574 30.6665L36.8311 30.7101C34.4756 31.5244 31.3906 31.973 28.1445 31.973C24.8983 31.973 21.8133 31.5244 19.4578 30.7101C18.7915 30.4796 18.6064 30.4071 18.3603 30.2807C18.1101 30.1496 17.8772 30.083 17.6679 30.083C17.2145 30.083 16.9361 30.3872 16.8612 30.6887C16.8263 30.8292 16.8086 30.9725 16.8086 31.1148C16.8086 32.3152 18.0441 33.4036 20.2875 34.1793C22.3924 34.9071 25.1827 35.3079 28.1443 35.3079C31.1059 35.3079 33.8962 34.9071 36.0011 34.1793C38.2446 33.4036 39.4801 32.3152 39.4801 31.1148C39.4801 30.9279 39.4497 30.7402 39.3888 30.5546C39.2343 30.0823 38.8953 30.0117 38.7069 30.0117Z" fill="#2BC58E" fill-opacity="0.8"/>
<path fill-rule="evenodd" clip-rule="evenodd" d="M38.7068 35.5859C38.529 35.5859 38.3364 35.646 38.1179 35.7696C37.7948 35.9524 37.3871 36.0927 36.9552 36.2414L36.8311 36.2843C34.4756 37.0987 31.3906 37.5473 28.1444 37.5473C24.8982 37.5473 21.8132 37.0987 19.4577 36.2843C18.7915 36.0539 18.6064 35.9815 18.3603 35.855C18.1101 35.7239 17.8772 35.6573 17.6679 35.6573C17.2145 35.6573 16.9361 35.9615 16.8612 36.263C16.8263 36.4035 16.8086 36.5468 16.8086 36.6891C16.8086 37.8896 18.0441 38.9779 20.2875 39.7536C22.3924 40.4813 25.1827 40.8821 28.1443 40.8821C31.1059 40.8821 33.8962 40.4813 36.0011 39.7536C38.2446 38.9779 39.4801 37.8896 39.4801 36.6891C39.4801 36.5022 39.4497 36.3145 39.3888 36.129C39.2342 35.6564 38.8952 35.5859 38.7068 35.5859Z" fill="#2BC58E" fill-opacity="0.8"/>
<path d="M55.3363 28.001C55.3363 42.8951 43.2623 54.9692 28.3682 54.9692C13.4741 54.9692 1.4 42.8951 1.4 28.001C1.4 13.1069 13.4741 1.03281 28.3682 1.03281C43.2623 1.03281 55.3363 13.1069 55.3363 28.001Z" stroke="#2BC58E" stroke-width="1.8"/>
</svg>

<svg width="57" height="56" fill="none" xmlns="http://www.w3.org/2000/svg"><path d="M20.288 22.858c2.104.717 4.895 1.113 7.856 1.113 2.962 0 5.752-.396 7.857-1.113 2.244-.765 3.48-1.838 3.48-3.022 0-1.184-1.236-2.257-3.48-3.022-2.105-.718-4.895-1.113-7.857-1.113-2.961 0-5.752.395-7.856 1.113-2.244.765-3.48 1.838-3.48 3.022 0 1.184 1.236 2.257 3.48 3.022z" fill="#2BC58E"/><path fill-rule="evenodd" clip-rule="evenodd" d="M38.707 24.436c-.178 0-.37.06-.59.183-.322.183-.73.323-1.16.472l-.126.043c-2.355.814-5.44 1.263-8.687 1.263-3.246 0-6.33-.449-8.686-1.263-.666-.23-.852-.303-1.098-.43-.25-.13-.483-.197-.692-.197a.807.807 0 00-.807.606 1.77 1.77 0 00-.052.426c0 1.2 1.235 2.289 3.479 3.064 2.104.728 4.895 1.129 7.856 1.129 2.962 0 5.752-.401 7.857-1.129 2.244-.775 3.48-1.864 3.48-3.064 0-.187-.031-.375-.092-.56-.155-.473-.494-.543-.682-.543zM38.707 30.012c-.178 0-.37.06-.589.183-.322.183-.73.323-1.16.471l-.127.044c-2.355.814-5.44 1.263-8.687 1.263-3.246 0-6.33-.449-8.686-1.263-.666-.23-.852-.303-1.098-.43-.25-.13-.483-.197-.692-.197a.807.807 0 00-.807.606 1.77 1.77 0 00-.052.426c0 1.2 1.235 2.289 3.479 3.064 2.104.728 4.895 1.129 7.856 1.129 2.962 0 5.752-.4 7.857-1.129 2.244-.775 3.48-1.864 3.48-3.064 0-.187-.031-.375-.092-.56-.155-.473-.494-.543-.682-.543zM38.707 35.586c-.178 0-.37.06-.59.184-.322.182-.73.323-1.162.471l-.124.043c-2.355.815-5.44 1.263-8.687 1.263-3.246 0-6.33-.448-8.686-1.263-.666-.23-.852-.303-1.098-.429-.25-.131-.483-.198-.692-.198a.807.807 0 00-.807.606 1.77 1.77 0 00-.052.426c0 1.2 1.235 2.289 3.479 3.065 2.104.727 4.895 1.128 7.856 1.128 2.962 0 5.752-.4 7.857-1.128 2.244-.776 3.48-1.864 3.48-3.065 0-.187-.031-.374-.092-.56-.155-.473-.494-.543-.682-.543z" fill="#2BC58E" fill-opacity=".8"/><path d="M55.336 28.001c0 14.894-12.074 26.968-26.968 26.968S1.4 42.895 1.4 28.001 13.474 1.033 28.368 1.033 55.336 13.107 55.336 28z" stroke="#2BC58E" stroke-width="1.8"/></svg>
